remix/System/delete-bin-fill.svg

<svg viewBox="0 0 24 24" fill="currentColor" xmlns="http://www.w3.org/2000/svg"><path d="M17 6H22V8H20V21C20 21.5523 19.5523 22 19 22H5C4.44772 22 4 21.5523 4 21V8H2V6H7V3C7 2.44772 7.44772 2 8 2H16C16.5523 2 17 2.44772 17 3V6ZM9 11V17H11V11H9ZM13 11V17H15V11H13ZM9 4V6H15V4H9Z"/></svg>

<svg viewBox="0 0 24 24" xmlns="http://www.w3.org/2000/svg"><path fill="none" d="M0 0h24v24H0Z"/><path d="M17 6h5v2h-2v13 0c0 .55-.45 1-1 1H5v0c-.56 0-1-.45-1-1V8H2V6h5V3v0c0-.56.44-1 1-1h8v0c.55 0 1 .44 1 1v3Zm-8 5v6h2v-6H9Zm4 0v6h2v-6h-2ZM9 4v2h6V4H9Z"/></svg>
